X:852
T:Alastair of the Dun
S:Andrew Rankine
N:Transposed from G minor
Z:Nigel Gatherer
L:1/8
M:2/4
K:Am
AA c2    | cB/A/ B2    | dd/d/ GG    | d/d/d/d/ GG  |
AA c2    | cB/A/ Bc/d/ | ec    dB    | A2       A2 :|
ed AB/d/ | ed    A2    | dB    GB/c/ | dB       G2  |
ed AB/d/ | ed    AB/d/ | ec    dB    | A2       A2 :|
<end>
<start>
